inst/assets/svg/wi-moon-alt-waning-crescent-4.svg

<?xml version="1.0" encoding="UTF-8"?>
<svg xmlns="http://www.w3.org/2000/svg" xmlns:xlink="http://www.w3.org/1999/xlink" width="30pt" height="30pt" viewBox="0 0 30 30" version="1.1">
<g id="surface341">
<path style=" stroke:none;fill-rule:nonzero;fill:rgb(0%,0%,0%);fill-opacity:1;" d="M 3.738281 14.441406 C 3.738281 12.921875 4.039063 11.460938 4.628906 10.070313 C 5.21875 8.679688 6.03125 7.488281 7.03125 6.480469 C 8.03125 5.46875 9.230469 4.671875 10.621094 4.078125 C 12.011719 3.488281 13.460938 3.191406 14.988281 3.191406 C 16.519531 3.191406 17.96875 3.488281 19.359375 4.078125 C 20.75 4.671875 21.949219 5.480469 22.960938 6.480469 C 23.96875 7.480469 24.769531 8.679688 25.359375 10.070313 C 25.949219 11.460938 26.25 12.910156 26.25 14.441406 C 26.25 15.96875 25.949219 17.421875 25.359375 18.808594 C 24.769531 20.199219 23.960938 21.398438 22.960938 22.410156 C 21.960938 23.421875 20.761719 24.21875 19.359375 24.808594 C 17.960938 25.398438 16.511719 25.699219 14.988281 25.699219 C 13.46875 25.699219 12.011719 25.398438 10.621094 24.808594 C 9.230469 24.21875 8.039063 23.410156 7.03125 22.410156 C 6.019531 21.410156 5.21875 20.210938 4.628906 18.808594 C 4.039063 17.410156 3.738281 15.96875 3.738281 14.441406 Z M 4.941406 14.441406 C 4.941406 15.769531 5.191406 17.039063 5.691406 18.25 C 6.191406 19.460938 6.871094 20.511719 7.71875 21.398438 C 8.570313 22.289063 9.589844 23.011719 10.769531 23.570313 C 11.949219 24.128906 13.199219 24.441406 14.511719 24.511719 C 13.269531 23.320313 12.398438 21.878906 11.898438 20.199219 C 11.398438 18.519531 11.148438 16.601563 11.148438 14.441406 C 11.148438 12.511719 11.460938 10.660156 12.070313 8.898438 C 12.679688 7.140625 13.539063 5.640625 14.628906 4.398438 C 12.859375 4.46875 11.238281 4.960938 9.75 5.871094 C 8.261719 6.78125 7.089844 8 6.230469 9.511719 C 5.371094 11.019531 4.941406 12.679688 4.941406 14.441406 Z M 4.941406 14.441406 "/>
</g>
</svg>

<?xml version="1.0" encoding="utf-8"?>
<!-- Generator: Adobe Illustrator 22.0.1, SVG Export Plug-In . SVG Version: 6.00 Build 0)  -->
<svg version="1.1" id="Layer_1" xmlns="http://www.w3.org/2000/svg" xmlns:xlink="http://www.w3.org/1999/xlink" x="0px" y="0px"
	 viewBox="0 0 30 30" style="enable-background:new 0 0 30 30;" xml:space="preserve">
<path d="M3.74,14.44c0-1.52,0.3-2.98,0.89-4.37s1.4-2.58,2.4-3.59s2.2-1.81,3.59-2.4s2.84-0.89,4.37-0.89s2.98,0.3,4.37,0.89
	s2.59,1.4,3.6,2.4s1.81,2.2,2.4,3.59s0.89,2.84,0.89,4.37s-0.3,2.98-0.89,4.37s-1.4,2.59-2.4,3.6s-2.2,1.81-3.6,2.4
	s-2.85,0.89-4.37,0.89s-2.98-0.3-4.37-0.89s-2.58-1.4-3.59-2.4s-1.81-2.2-2.4-3.6S3.74,15.97,3.74,14.44z M4.94,14.44
	c0,1.33,0.25,2.6,0.75,3.81s1.18,2.26,2.03,3.15s1.87,1.61,3.05,2.17s2.43,0.87,3.74,0.94c-1.24-1.19-2.11-2.63-2.61-4.31
	s-0.75-3.6-0.75-5.76c0-1.93,0.31-3.78,0.92-5.54s1.47-3.26,2.56-4.5c-1.77,0.07-3.39,0.56-4.88,1.47S7.09,8,6.23,9.51
	S4.94,12.68,4.94,14.44z"/>
</svg>
